svg/redux.svg

<svg viewBox="0 0 20 20" xmlns="http://www.w3.org/2000/svg">
<rect width="100%" height="100%" fill="#764ABC"/>
<path d="M7.46676 14.3035C6.85594 14.3035 6.34693 13.8149 6.32657 13.204C6.30621 12.9801 6.36729 12.7561 6.46909 12.6136C5.32889 10.6386 4.71807 8.13423 5.65466 5.52807C6.32657 3.57344 8.0165 2.25 9.84896 2.25C11.8036 2.25 13.8397 3.9603 14.084 7.25873C13.7786 7.15692 13.3306 7.0144 13.0659 6.95332C13.0049 5.8742 12.0886 3.18659 9.93041 3.22731C9.1567 3.24767 8.0165 3.61417 7.42604 4.36751C6.71342 5.24302 6.30621 6.30177 6.22476 7.52341C6.1026 9.15227 6.44873 10.659 7.28352 12.0435C7.32424 12.0231 7.38532 12.0231 7.42604 12.0231H7.46676C8.07758 12.0231 8.5866 12.5118 8.60696 13.1226C8.62732 13.7538 8.13867 14.2832 7.50749 14.3035H7.46676Z" fill="white"/>
<path d="M16.6698 10.3332C15.1224 8.52109 12.842 7.52342 10.2358 7.52342H9.91004C9.7268 7.15693 9.33995 6.9126 8.91237 6.9126H8.87165C8.24047 6.93296 7.75181 7.46234 7.77217 8.09352C7.79254 8.70434 8.30155 9.19299 8.91237 9.19299H8.95309C9.40103 9.17263 9.78788 8.88758 9.95077 8.50073H10.3173C11.8647 8.50073 13.3306 8.94866 14.6541 9.82417C15.6721 10.4961 16.4051 11.3716 16.8123 12.4303C17.1584 13.2855 17.1381 14.1203 16.7716 14.8329C16.2015 15.912 15.2445 16.5025 13.9822 16.5025C13.1678 16.5025 12.394 16.2581 11.9868 16.0749C11.7629 16.2785 11.3557 16.6043 11.0706 16.8079C11.9461 17.2151 12.842 17.4391 13.6971 17.4391C15.6518 17.4391 17.0974 16.36 17.6471 15.2808C18.2376 14.0999 18.1968 12.0638 16.6698 10.3332Z" fill="white"/>
<path d="M13.0863 12.8579C13.6768 12.7969 14.1247 12.2878 14.1043 11.677C14.084 11.0662 13.575 10.5775 12.9641 10.5775H12.9234C12.2922 10.5979 11.8036 11.1273 11.8239 11.7585C11.8443 12.0639 11.9665 12.3286 12.1497 12.5118C11.4575 13.876 10.3987 14.8736 8.81057 15.7084C7.73145 16.2785 6.61162 16.4821 5.49178 16.3396C4.57555 16.2175 3.86293 15.8102 3.41499 15.1383C2.76345 14.1407 2.70237 13.0615 3.2521 11.9824C3.63896 11.2087 4.24978 10.6386 4.63663 10.3536C4.55519 10.0889 4.43302 9.64096 4.37194 9.31519C1.41964 11.4531 1.72505 14.3443 2.62092 15.7084C3.29283 16.7265 4.65699 17.3577 6.16368 17.3577C6.57089 17.3577 6.97811 17.3169 7.38532 17.2151C9.99149 16.7061 11.9665 15.1587 13.0863 12.8579Z" fill="white"/>
</svg>

<svg xmlns="http://www.w3.org/2000/svg" viewBox="0 0 20 20">
  <rect width="100%" height="100%" fill="#764ABC"/>
  <path fill="#fff" d="M7.47 14.3c-.61 0-1.12-.49-1.14-1.1a.91.91 0 0 1 .14-.59 8.33 8.33 0 0 1-.82-7.08c.68-1.96 2.37-3.28 4.2-3.28 1.95 0 3.99 1.71 4.23 5-.3-.1-.75-.24-1.01-.3-.07-1.08-.98-3.76-3.14-3.72-.77.02-1.91.38-2.5 1.14a5.46 5.46 0 0 0-1.2 3.15 7.46 7.46 0 0 0 1.05 4.52c.04-.02.1-.02.15-.02h.04a1.14 1.14 0 0 1 .04 2.28h-.04Z"/>
  <path fill="#fff" d="M16.67 10.33a8.27 8.27 0 0 0-6.43-2.8H9.9a1.12 1.12 0 0 0-1-.62h-.04a1.14 1.14 0 0 0 .04 2.28h.04c.45-.02.84-.3 1-.69h.37c1.54 0 3.01.45 4.33 1.32a5.45 5.45 0 0 1 2.16 2.61c.35.86.33 1.69-.04 2.4a2.99 2.99 0 0 1-2.79 1.67 5.2 5.2 0 0 1-2-.43 12 12 0 0 1-.9.74c.87.4 1.76.63 2.62.63 1.95 0 3.4-1.08 3.95-2.16.59-1.18.55-3.22-.98-4.95Z"/>
  <path fill="#fff" d="M13.09 12.86a1.14 1.14 0 0 0-.12-2.28h-.05a1.14 1.14 0 0 0-.77 1.93 7.28 7.28 0 0 1-3.34 3.2 5.5 5.5 0 0 1-3.32.63 2.83 2.83 0 0 1-2.08-1.2 3 3 0 0 1-.16-3.16 4.8 4.8 0 0 1 1.39-1.63c-.08-.26-.2-.7-.27-1.03-2.95 2.13-2.64 5.02-1.75 6.39.67 1.02 2.04 1.65 3.54 1.65a5 5 0 0 0 1.23-.14 7.81 7.81 0 0 0 5.7-4.36Z"/>
</svg>
